X: 1
T: Prekid Kolo
O: Croatia
M: 4/4
L: 1/8
Z: John Chambers <jc@trillian.mit.edu>
K: F
|: "F"~c2 Bc Ac fe | "C7"de dc "F"A2 z2 \
| "C7"{B=B}.c2 z2 C2 _B2 | BG BA "F"A2 z2 |
| "C7"{B=B}.c2 z2 z2 _B2 | BG cB "F"A2 A2 \
| "C7"~c2 c2 z2 B2 | BG cB "F"A2 z2 :|
